assets/icons/fees.svg

<svg width="20" height="20" viewBox="0 0 20 20" fill="none" xmlns="http://www.w3.org/2000/svg">
<path d="M11.604 3.60016H8.39604C5.37211 3.60016 3.86014 3.60016 2.92016 4.53774C2.27218 5.18252 2.07138 6.0985 2.00818 7.59127C1.99618 7.88726 1.98978 8.03606 2.04498 8.13445C2.10098 8.23285 2.32098 8.35685 2.76257 8.60324C3.01131 8.74192 3.21851 8.9445 3.36275 9.19005C3.50699 9.43561 3.58304 9.71523 3.58304 10C3.58304 10.2848 3.50699 10.5644 3.36275 10.81C3.21851 11.0555 3.01131 11.2581 2.76257 11.3968C2.32098 11.644 2.10018 11.7672 2.04498 11.8656C1.98978 11.964 1.99618 12.112 2.00898 12.408C2.07138 13.9015 2.27298 14.8175 2.92016 15.4623C3.85934 16.3999 5.37131 16.3999 8.39604 16.3999H11.604C14.6279 16.3999 16.1399 16.3999 17.0798 15.4623C17.7278 14.8175 17.9286 13.9015 17.9918 12.4088C18.0038 12.1128 18.0102 11.964 17.955 11.8656C17.899 11.7672 17.679 11.644 17.2374 11.3968C16.9887 11.2581 16.7815 11.0555 16.6373 10.81C16.493 10.5644 16.417 10.2848 16.417 10C16.417 9.71523 16.493 9.43561 16.6373 9.19005C16.7815 8.9445 16.9887 8.74192 17.2374 8.60324C17.679 8.35685 17.8998 8.23285 17.955 8.13445C18.0102 8.03606 18.0038 7.88806 17.991 7.59127C17.9286 6.0985 17.727 5.18332 17.0798 4.53774C16.1407 3.60016 14.6287 3.60016 11.604 3.60016Z" stroke="currentColor" stroke-width="1.3"/>
<path d="M7.60052 12.3998L12.4004 7.59991" stroke="currentColor" stroke-width="1.3" stroke-linecap="round"/>
<path d="M12.8001 12C12.8001 12.2121 12.7158 12.4156 12.5658 12.5656C12.4157 12.7157 12.2123 12.7999 12.0001 12.7999C11.7879 12.7999 11.5844 12.7157 11.4344 12.5656C11.2844 12.4156 11.2001 12.2121 11.2001 12C11.2001 11.7878 11.2844 11.5843 11.4344 11.4343C11.5844 11.2843 11.7879 11.2 12.0001 11.2C12.2123 11.2 12.4157 11.2843 12.5658 11.4343C12.7158 11.5843 12.8001 11.7878 12.8001 12ZM8.80016 8.00005C8.80016 8.21222 8.71587 8.4157 8.56585 8.56573C8.41582 8.71575 8.21235 8.80004 8.00018 8.80004C7.78801 8.80004 7.58453 8.71575 7.4345 8.56573C7.28448 8.4157 7.2002 8.21222 7.2002 8.00005C7.2002 7.78789 7.28448 7.58441 7.4345 7.43438C7.58453 7.28436 7.78801 7.20007 8.00018 7.20007C8.21235 7.20007 8.41582 7.28436 8.56585 7.43438C8.71587 7.58441 8.80016 7.78789 8.80016 8.00005Z" fill="currentColor"/>
</svg>

<svg xmlns="http://www.w3.org/2000/svg" width="20" height="20" fill="none" viewBox="0 0 20 20"><path stroke="currentColor" stroke-width="1.3" d="M11.604 3.6H8.396c-3.024 0-4.536 0-5.476.938-.648.645-.849 1.56-.912 3.053-.012.296-.018.445.037.543.056.099.276.223.718.47a1.6 1.6 0 0 1 0 2.793c-.442.247-.663.37-.718.469s-.049.246-.036.542c.062 1.494.264 2.41.911 3.054.94.938 2.451.938 5.476.938h3.208c3.024 0 4.536 0 5.476-.938.648-.644.849-1.56.912-3.053.012-.296.018-.445-.037-.543-.056-.099-.276-.222-.718-.47a1.6 1.6 0 0 1 0-2.793c.442-.246.663-.37.718-.469s.049-.246.036-.543c-.062-1.493-.264-2.408-.911-3.053-.94-.938-2.451-.938-5.476-.938Z"/><path stroke="currentColor" stroke-linecap="round" stroke-width="1.3" d="m7.6 12.4 4.8-4.8"/><path fill="currentColor" d="M12.8 12a.8.8 0 1 1-1.6 0 .8.8 0 0 1 1.6 0m-4-4a.8.8 0 1 1-1.6 0 .8.8 0 0 1 1.6 0"/></svg>
